!!!!SEGMENT: pl-wtm--557--001-005_stojowski-zygmunt--romantische-stucke-op-25-5-fruhlingserwachen.krn
!!!cenid: 19xx:164
!!!COM: Stojowski, Zygmunt
!!!COM-rismID: pe41019736
!!!CDT: 1870-1946
!!!CNT: Polish
!!!GTL: Romantische Stücke Op. 25
!!!OTL: 5. Frühlingserwachen
!!!OMV: 005
!!!PDT:
!!!AGN:
!!!YEC: Copyright 2022 Narodowy Instytut Fryderyka Chopina (https://polishscores.org)
!!!YEM: License CC-BY-4.0 (https://creativecommons.org/licenses/by/4.0)
!!!SMS-siglum: PL-Wtm
!!!SMS-shelfmark: 557
!!!SMS-variant:
!!!SMS-altvar:
!!!SMS-shelfwork: 001-005 G
!!!NIFC-rismSourceID: 1001211569
!!!NIFC-rismChildID: 1001211569
!!!NIFC-islandoraID: pl-wtm:75301
!!!URL-pdf-islandora: https://repozytorium.nifc.pl/islandora/object/pl-wtm%3A75301/datastream/PDF/view
!!!URL-scan: https://polish.musicsources.pl/pl/lokalizacje/galeria/druki-muzyczne/19410/12 @EN{Scan on Polish Music Sources Website} @PL{Skany w portalu Dziedzictwo Muzyki Polskiej w otwartym dostępie}
!!!IIIF:
!!!ONB-nifc:
!!!AIN: 1 piano
!!!key: b
**kern	**fing	**kern	**fing	**dynam
*part1	*	*part1	*	*part1
*staff2	*	*staff1	*	*staff1/2
*group1	*	*group1	*	*
*ICklav	*	*ICklav	*	*
*Ipiano	*	*Ipiano	*	*
*I"Pianoforte	*	*I"Pianoforte	*	*
*	*	*I'	*	*
*clefF4	*	*clefG2	*	*
*k[f#c#]	*	*k[f#c#]	*	*
*b:	*	*b:	*	*
*kcancel	*	*kcancel	*	*
*M6/8	*	*M6/8	*	*
=1	=1	=1	=1	=1
!!LO:TX:a:B:t=Molto vivace.
!	!	!	!	!LO:DY:t=%s deciso
8D: 8FF#: 8BBB^>:/	.	8b 8f# 8B^>/	.	f
8r	.	8r	.	.
[8F#^\	.	[8f#^>/	3	.
8.F#\L]	.	8.f#/L]	.	.
16E\K	.	16e/K	.	.
8F#\J	.	8f#/J	.	.
=2	=2	=2	=2	=2
!LO:TX:t=P:problem:mixed beam	!	!	!	!
N(16BB/LL	.	4.ryy	.	.
16F#/	.	.	.	.
16B/	.	.	.	.
16c#>\	.	.	.	>
16d>\	.	.	.	.
16f#>\JJ	.	.	.	.
!	!	!LO:TX:t=P:problem:brackettup	!	!
!	!	!LO:TUP:a	!	!
4.r	.	16%3b\LN)	.	.
.	.	16%3cc#\J	2	]]
=3	=3	=3	=3	=3
4.r	.	8dd\L	.	mf
.	.	16r	.	.
.	.	16cc#\K	.	.
.	.	8dd\J	.	.
8.r	.	(4b\	.	.
*	*below	*	*	*
(<[16g\KL	1	.	.	.
8g]J 8e\)	.	8cc#\)	.	.
=4	=4	=4	=4	=4
8f# 8B\	2 5	8dd\L	.	.
8r	.	16r	.	.
.	.	16cc#\K	.	.
8r	.	8dd\J	.	.
8.r	.	(4b\	.	.
(<[16g\KL	.	.	.	.
8g]J 8e\)	.	8cc#\)	.	.
=5	=5	=5	=5	=5
8f# 8B\	.	8dd\L	.	.
8r	.	16r	.	.
.	.	16cc#\K	.	.
8r	.	8dd\J	.	>
8.r	.	(4g/	.	.
(<[16e\KL	.	.	.	.
8e]J 8c#\)	.	8a/)	.	]]
!!LO:LB:g=original
=6	=6	=6	=6	=6
8f# 8B\	.	8dd\L	.	p
8r	.	16r	.	.
.	.	16cc#\K	.	.
8r	.	8dd\J	.	.
8.r	.	(4g/	.	.
(<[16e\KL	.	.	.	.
8e]J 8c#\)	.	8a/)	.	.
=7	=7	=7	=7	=7
8.r	.	(4g/	.	.
(16e\KL	.	.	.	.
8c#\J)	.	8a/)	.	.
!	!	!	!	!LO:HP:t=poco cresc.
8.r	.	(4f#/	.	<
(16d\KL	.	.	.	.
8B\J)	.	8g/)	.	.
=8	=8	=8	=8	=8
8.r	.	(4e/	.	.
(16c#\KL	.	.	.	.
8A\J)	.	8f#/)	.	.
8.r	.	(4d/	.	.
(16B\KL	.	.	.	.
8G\J)	.	8e/)	.	.
=9	=9	=9	=9	=9
8A 8D\	.	8f#L 8d/	.	.
8r	.	16ra	.	.
.	.	16e/K	.	.
8r	.	8f#/J	.	.
8.r	.	(4d/	.	.
(16B\KL	.	.	.	.
8G\J)	.	8e/)	.	>
=10	=10	=10	=10	=10
8A 8D\	.	8f#L 8d/	.	.
8r	.	16ra	.	.
.	.	16e/K	.	.
8r	.	8f#/J	.	.
8.r	.	(4d/	.	]
(16B\KL	.	.	.	.
8G\J)	.	8e/)	.	.
!!LO:LB:g=original
=11	=11	=11	=11	=11
8A 8D\	.	8f#L 8d/	.	<
8r	.	16ra	.	.
.	.	16e/K	.	.
8r	.	8f#/J	.	.
8.r	.	(4d/	.	.
(16B\KL	.	.	.	.
8G\J)	.	8e/)	.	.
=12	=12	=12	=12	=12
8.r	.	(4d/	.	[
(16B\KL	.	.	.	.
8G\J)	.	8e/)	.	.
8.r	.	(4d/	.	.
(16G#X\KL	.	.	.	.
8B\J)	.	8c#/)	.	.
=13	=13	=13	=13	=13
8A 8D\	.	8f#L 8d/	.	.
8r	.	16ra	.	.
.	.	16e/K	.	>
8r	.	8f#/J	.	.
8.r	.	(4d/	.	.
(16B\KL	.	.	.	.
8Gn\J)	.	8e/)	.	]]
=14	=14	=14	=14	=14
!	!	!LO:TX:t=dimin.-e-poco-rall.:ext=s:problem:text with extention lines	!	!
8A 8D\	.	8f#L 8d/	.	>
8r	.	16ra	.	.
.	.	16e/K	.	.
8r	.	8f#/J	.	.
8.r	.	(4d/	.	.
(16B\KL	.	.	.	.
8G\J)	.	8e/)	.	.
=15	=15	=15	=15	=15
8A 8D\	.	8f#L 8d/	.	.
8r	.	16ra	.	]]
.	.	16e/K	.	.
8r	.	8f#/J	.	.
8.r	.	(4d/	.	.
(16B\KL	.	.	.	.
8G\J)	.	8e/)	.	.
!!LO:LB:g=original
=16	=16	=16	=16	=16
8.r	.	(4d/	.	.
(16B\KL	.	.	.	.
8G\J)	.	8e/)	.	.
8.r	.	(4d/	.	.
(16F#\KL	.	.	.	.
8A#X\J)	.	8c#/)	.	.
=17	=17	=17	=17	=17
*	*	*	*	*^
!!LO:TX:a:i:t=a tempo
!	!	!	!	!LO:DY:rj	!LO:DY:a=2:rj
8D 8FF# 8BBB/	.	8b 8f# 8B/	.	sf	sf
8r	.	8r	.	.	.
[8F#^\	.	[8f#^>/	.	.	f
8.F#\L]	.	8.f#/L]	.	.	.
16E\K	.	16e/K	.	.	.
8F#\J	.	8f#/J	.	.	.
*	*	*	*	*v	*v
=18	=18	=18	=18	=18
!LO:TX:t=P:problem:mixed beam	!	!	!	!
N(16BB/LL	.	4.ryy	.	.
16F#/	.	.	.	.
16B/	.	.	.	.
16c#>\	.	.	.	.
16d>\	.	.	.	.
16f#>\JJ	.	.	.	.
!	!	!LO:TX:t=P:problem:brackettup	!	!
!	!	!LO:TUP:a	!	!
4.r	.	16%3b\LN)	.	.
.	.	16%3cc#\J	.	.
=19	=19	=19	=19	=19
4.r	.	8dd\L	.	.
.	.	16r	.	.
.	.	16cc#\K	.	.
.	.	8dd\J	.	.
8.r	.	(4b\	.	.
(16g\KL	1	.	.	.
8e\J)	.	8ccn\)	.	>
=20	=20	=20	=20	=20
8f# 8B\	2 5	8dd\L	.	.
8r	.	16r	.	.
.	.	16cc#X\K	.	.
8r	.	8dd\J	.	.
8.r	.	(4b\	.	] p
(16g\KL	.	.	.	.
8e\J)	.	8ccn\)	.	.
!!LO:LB:g=original
=21	=21	=21	=21	=21
8f# 8B\	.	8dd\L	.	.
8r	.	16r	.	.
.	.	16cc#X\K	.	.
8r	.	8dd\J	.	.
8.r	.	(4b\	.	.
(16g\KL	.	.	.	.
8e\J)	.	8ccn\)	.	.
=22	=22	=22	=22	=22
8.r	.	(4a/	.	.
(16f#\KL	.	.	.	.
8d\J)	.	8b\)	.	.
8.r	.	(4g/	.	.
(16e\KL	.	.	.	.
8cn\J)	.	8a/)	.	.
=23	=23	=23	=23	=23
8d 8G\	.	8bL 8g/	.	.
8r	.	16r	.	.
.	.	16a/K	.	.
8r	.	8b/J	.	.
8.r	.	(4g/	.	.
(16e\KL	.	.	.	.
8cn\J)	.	8a/)	.	.
=24	=24	=24	=24	=24
!	!	!	!	!LO:HP:t=poco cresc.
8d 8G\	.	8bL 8g/	.	<
8r	.	16r	.	.
.	.	16a/K	.	.
8r	.	8b/J	.	.
8.r	.	(4g/	.	.
(16e\KL	.	.	.	.
8cn\J)	.	8a/)	.	.
=25	=25	=25	=25	=25
8d 8G\	.	8bL 8g/	.	.
8r	.	16r	.	.
.	.	16a/K	.	.
8r	.	8b/J	.	.
8.r	.	(4g/	.	.
16e\KL	.	.	.	.
8cn\J	.	8a/)	.	.
!!LO:PB:g=original
=26	=26	=26	=26	=26
8.r	.	(4g/	.	.
(16e\KL	.	.	.	.
8cn\J)	.	8a/)	.	.
8.r	.	(4g/	.	.
(16c#X\KL	.	.	.	.
8e\J)	.	8f#/)	.	.
=27	=27	=27	=27	=27
8d 8G\	.	8bL 8g/	.	.
8r	.	16r	.	.
.	.	16a/K	.	.
8r	.	8b/J	.	.
8.r	.	(4g/	.	.
(16e\KL	.	.	.	.
8cn\J)	.	8a/)	.	.
=28	=28	=28	=28	=28
8d 8G\	.	8bL 8g/	.	>
8r	.	16r	.	.
.	.	16a/K	.	.
8r	.	8b/J	.	.
8.r	.	(4g/	.	.
(16e\KL	.	.	.	.
8cn\J)	.	8a/)	.	]]
=29	=29	=29	=29	=29
8d 8G\	.	8bL 8g/	.	p
8r	.	16r	.	.
.	.	16a/K	.	.
8r	.	8b/J	.	.
8.r	.	(4g/	.	.
(16e\KL	.	.	.	.
8cn\J)	.	8a/)	.	.
=30	=30	=30	=30	=30
8.r	.	(4f#/	.	.
(16d\KL	.	.	.	.
8B\J)	.	8g/)	.	.
8.r	.	(4e/	.	.
(16cn\KL	.	.	.	.
8A\J)	.	8f#/)	.	.
!!LO:LB:g=original
=31	=31	=31	=31	=31
8.r	.	(4b\	.	.
(16g\KL	1	.	.	.
8e\J)	.	8cc#\)	.	.
8.r	.	(4a/	.	.
(16f#\KL	2	.	.	.
8d\J)	.	8b\)	.	.
=32	=32	=32	=32	=32
8.r	.	(4g/	.	.
!	!	!LO:TX:a:i:t=poco a poco cresc.-:ext=ud:problem:text with extention lines	!	!LO:HP:a
(16e\KL	1	.	.	<
8cn\J)	.	8a/)	.	.
8.r	.	(4f#/	.	.
(16d\KL	.	.	.	.
8B\J)	.	8g/)	.	.
*clefG2	*	*	*	*
=33	=33	=33	=33	=33
8r	.	(4ccn\	.	.
(16a/LL	.	.	.	.
16g/J	.	.	.	.
8f#/J)	.	8dd\)	.	.
8r	.	(4b\	.	.
(16g/LL	.	.	.	.
16f#/J	.	.	.	.
8e/J)	.	8cc\)	.	.
=34	=34	=34	=34	=34
8r	.	(4dd\	.	.
(16b/LL	.	.	.	.
16a/J	.	.	.	.
8g/J)	.	8ee\)	.	.
8r	.	(4ccn\	.	.
(16a/LL	.	.	.	.
16g/J	.	.	.	.
8f#/J)	.	8dd\)	.	.
=35	=35	=35	=35	=35
8r	.	(4ee\	.	.
(16ccn/LL	.	.	.	.
16b/J	.	.	.	.
8a/J)	.	8ff#\)	.	.
8r	.	(4dd\	.	.
(16b/LL	.	.	.	.
16a/J	.	.	.	.
8g/J)	.	8ee\)	.	.
!!LO:LB:g=original
=36	=36	=36	=36	=36
8r	.	(4ff#\	.	.
16dd\LL	.	.	.	.
16ccn\J	.	.	.	.
8b\J	.	8gg\)	.	.
8r	.	(4ee\	.	.
(16cc\LL	.	.	.	.
16b\J	.	.	.	.
8a\J)	.	8ff#\)	.	[[
=37||	=37||	=37||	=37||	=37||
*M2/4	*	*M2/4	*	*
8b 8e/	.	(16gg\LL	.	p
.	.	16aa\	.	.
8r	.	16ff#\	.	.
.	.	16gg\JJ	.	.
(16cc#X\LL	.	8aa\)	.	.
16dd\	.	.	.	.
16b\	.	8r	.	.
16cc#\JJ	.	.	.	.
=38	=38	=38	=38	=38
8dd\)	.	(16f#/LL	.	.
.	.	16g/	.	.
8r	.	16e/	.	.
.	.	16f#/JJ	.	.
*clefF4	*	*	*	*
(16B\LL	.	8g/)	.	.
16cn\	.	.	.	.
16A\	.	8r	.	.
16B\JJ	.	.	.	.
*	*	*clefF4	*	*
=39	=39	=39	=39	=39
8cn\)	.	(16E\LL	.	.
.	.	16F#\	.	.
8r	.	16D\	.	.
.	.	16E\JJ	.	.
(16AA#X/LL	.	8F#\)	.	.
16BB/	.	.	.	.
16GG#X/	.	8r	.	.
16AA#/JJ	.	.	.	.
*	*	*clefG2	*	*
!!LO:LB:g=original
=40	=40	=40	=40	=40
8BB/)	.	(16ddd\LL	.	.
.	.	16eee\	.	.
!	!	!LO:TX:b:i:t=poco-cresc.:ext=s:problem:text with extention lines	!	!
8r	.	16ccc#\	.	<
.	.	16ddd\JJ	.	.
*clefG2	*	*	*	*
(16gg\LL	.	8eee\)	.	.
16aa\	.	.	.	.
16ff#\	.	8r	.	.
16gg\JJ	.	.	.	[
=41	=41	=41	=41	=41
8aa\)	.	(16cc#\LL	.	.
.	.	16dd\	.	.
8r	.	16b\	.	.
.	.	16cc#\JJ	.	.
(16f#/LL	.	8dd\)	.	.
16g/	.	.	.	.
16e/	.	8r	.	.
16f#/JJ	.	.	.	.
=42	=42	=42	=42	=42
8g/)	.	(16B/LL	.	.
.	.	16c#/	.	.
8r	.	16A/	.	.
.	.	16B/JJ	.	.
*clefF4	*	*	*	*
(16E#X\LL	3	8c#/)	.	.
16F#\	.	.	.	.
16D#X\	.	8r	.	.
16E#\JJ	.	.	.	.
=43	=43	=43	=43	=43
8F#\)	.	(16aaa\LL	.	.
.	.	16bbb\	.	.
8r	.	16ggg#X\	.	.
.	.	16aaa\JJ	.	.
*clefG2	*	*	*	*
(16ddd#X\LL	.	8bbb\)	.	.
16eee\	.	.	.	.
16ccc#\	.	8r	.	.
16ddd#\JJ	.	.	.	.
!!LO:LB:g=original
=44	=44	=44	=44	=44
8eee\)	.	(16gg\LL	.	.
.	.	16aa\	.	.
8r	.	16ff#\	.	.
.	.	16gg\JJ	.	>
(16cc#\LL	.	8aa\)	.	.
16dd\	.	.	.	.
16b\	.	8r	.	.
16cc#\JJ	.	.	.	.
=45	=45	=45	=45	=45
8dd\)	.	(16f#/LL	2	.
.	.	16g/	.	.
8r	.	16e/	.	.
.	.	16f#/JJ	.	.
*clefF4	*	*	*	*
(16B\LL	.	8g/)	.	.
16cn\	.	.	.	.
16A\	.	8r	.	.
16B\JJ	.	.	.	.
=46	=46	=46	=46	=46
8cn\)	.	(16e/LL	2	]
.	.	16f#/	.	.
8r	.	16d/	.	.
.	.	16e/JJ	.	.
(16A#X\LL	.	8f#/)	.	.
16B\	.	.	.	.
16G#X\	.	8r	.	.
16A#\JJ	.	.	.	.
*	*	*clefF4	*	*
=47	=47	=47	=47	=47
8B\)	.	(16D\LL	.	.
.	.	16E\	.	.
8r	.	16C#\	.	.
.	.	16D\JJ	.	.
(16GG#X/LL	.	8E\)	.	.
16AA/	.	.	.	.
16FF#/	.	8r	.	.
16GG#/JJ	.	.	.	.
!!LO:PB:g=original
=48	=48	=48	=48	=48
8AA'/L)	.	(16C#/LL	2	.
.	.	16D/	.	.
8GG#X'/	.	16BB/	.	.
.	.	16C#/JJ	.	.
8GGn'/	.	16D\LL	.	.
.	.	16E\	.	.
8FF#'/J	.	16C#\	.	.
.	.	16D\JJ	.	.
=49	=49	=49	=49	=49
8FFn'/L	1	16D#X\LL	2	<
.	.	16E\	.	.
8EE'/	.	16C##X\	1	.
.	.	16D#\JJ	.	.
8DD'/	.	16E\LL	.	.
.	.	16Fn\	.	.
8CC#'/J	.	16D#\	2	.
.	.	16E\JJ	1	.
=50	=50	=50	=50	=50
8BBB'/L	1	16E#X\LL	.	.
.	.	16F#\	.	.
8BBB-X'/	.	16D##X\	1	.
.	.	16E#\JJ	.	.
8AAA'/	.	16F#\LL	.	.
.	.	16G\	.	.
8GGG#X'/J	.	16E#\	1	.
.	.	16F#\JJ	.	.
=51	=51	=51	=51	=51
8GGGn'/L	1	16G\LL	.	.
.	.	16A-X\	.	.
8FFF#'/	.	16F#\	2	.
.	.	16G\JJ	1	.
8FFFn'/	.	16G#X\LL	.	[
.	.	16An\	.	.
8EEE-X'/J	.	16F##X\	1	.
.	.	16G#\JJ)	.	.
=52	=52	=52	=52	=52
!	!	!LO:TX:a:i:t=sempre legato	!	!LO:DY:b=2:rj
8DDD/	.	16A\LL	.	sf
.	.	16B\	.	.
8r	.	16G#X\	2	.
.	.	16A\JJ	1	.
!LO:TX:b:i:t=dolce espr.	!	!	!	!
(4F#\	3	16A#X\LL	.	p
.	.	16B\	.	.
.	.	16G##X\	1	.
.	.	16A#\JJ	.	.
!!LO:LB:g=original
=53	=53	=53	=53	=53
4G\	.	16B\LL	.	.
.	.	16c#\	.	.
.	.	16A#X\	2	.
.	.	16B\JJ	1	.
4E\	.	16c#\LL	.	.
.	.	16d\	.	.
.	.	16B\	1	.
.	.	16c#\JJ	.	.
*	*	*clefG2	*	*
=54	=54	=54	=54	=54
[2A [2D\	.	16d/LL	.	.
.	.	16e/	.	.
.	.	16c#/	2	.
.	.	16d/JJ	1	.
.	.	16e/LL	.	.
.	.	16f#/	.	.
.	.	16d/	1	.
.	.	16e/JJ	.	.
=55	=55	=55	=55	=55
*^	*	*	*	*
4A/]	2D\]	.	16f#/LL	.	.
.	.	.	16g/	.	.
.	.	.	16e/	1	.
.	.	.	16f#/JJ	.	.
*	*	*above	*	*	*
4B/	.	2	16g/LL	.	.
.	.	.	16a/	.	.
.	.	.	16f#/	2	.
.	.	.	16g/JJ	1	.
=56	=56	=56	=56	=56	=56
4d/	2E\	.	16g#X/LL	.	.
.	.	.	16a/	.	.
.	.	.	16f##X/	1	.
.	.	.	16g#/JJ	.	.
4c#/	.	2	16a/LL	.	.
.	.	.	16b/	.	.
.	.	.	16g#/	.	.
.	.	.	16a/JJ	.	.
=57	=57	=57	=57	=57	=57
4d/	2D\	.	16b/LL	.	.
.	.	.	16a/	.	.
.	.	.	16f#/	2	.
.	.	.	16e/JJ	.	.
!	!	!	!LO:TX:b:i:t=poco	!	!
[4A/	.	3	16f#/LL	2	.
.	.	.	16a/	3	.
.	.	.	16dd/	1	.
.	.	.	16ee/JJ	.	.
!!LO:LB:g=original
=58	=58	=58	=58	=58	=58
4A/]	2D\	.	16ff#\LL	.	<
.	.	.	16gg\	.	.
.	.	.	16ee\	1	.
.	.	.	16ff#\JJ	.	.
4B/	.	.	16gg\LL	.	.
.	.	.	16aa\	.	.
.	.	.	16ff#\	2	.
.	.	.	16gg\JJ	1	.
=59	=59	=59	=59	=59	=59
4d/	2E\	.	16gg#X\LL	.	.
.	.	.	16aa\	.	.
.	.	.	16ff##X\	1	.
.	.	.	16gg#\JJ	.	.
4c#/	.	.	16aa\LL	.	.
.	.	.	16bb\	.	.
.	.	.	16gg#\	.	.
.	.	.	16aa\JJ	.	.
=60	=60	=60	=60	=60	=60
!	!	!	!LO:N:acc=n#	!	!
8e/L	[2D\	.	16ff#X\LL	2	.
.	.	.	16aa\	1	.
8d/J	.	1	16ddd\	.	.
.	.	.	16eee\JJ	.	.
[4A/	.	.	16fff#\LL	.	>
.	.	.	16eee\	.	.
.	.	.	16ddd\	.	.
.	.	.	16aa\JJ	.	.
=61	=61	=61	=61	=61	=61
4A/]	2D\_	.	16ff#\LL	4	.
.	.	.	16dd\	.	.
.	.	.	16a\	.	.
.	.	.	16f#\JJ	2	]
4B/	.	.	16g\LL	3	.
.	.	.	16b\	1	.
.	.	.	16dd\	.	.
.	.	.	16gg\JJ	.	.
=62	=62	=62	=62	=62	=62
4G/	4D\]	.	16bb\LL	.	.
.	.	.	16gg\	.	.
.	.	.	16dd\	.	.
.	.	.	16b\JJ	.	.
4F# 4AA/	4ryy	.	16cc#\LL	3	.
.	.	.	16dd\	.	.
.	.	.	16b\	2	.
.	.	.	16cc#\JJ	3	.
*v	*v	*	*	*	*
!!LO:LB:g=original
=63	=63	=63	=63	=63
8D 8AA 8DD/)	.	16ddd:LL 16ff#: 16dd:\	.	.
.	.	16ccc#\	.	.
8r	.	16bb\	.	.
.	.	16aa\JJ	.	.
8a'\L	.	16gg\LL	.	.
.	.	16ff#\	3	.
8d'\J	.	16ee\	.	.
.	.	16dd\JJ	.	.
=64	=64	=64	=64	=64
*	*	*^	*	*
8A'\	.	16cc#/LL	4ryy	4	.
.	.	16b/	.	.	.
8r	.	16a/	.	.	.
.	.	16g/JJ	.	.	.
!LO:TX:b:i:t=sempre staccato	!	!LO:TX:a:i:t=espress.	!	!	!
8DD/L	.	16f#/LL	4f#~\	4	.
.	.	16A/	.	.	.
*	*below	*	*	*	*
8GG/J	3	16B/	.	.	.
.	.	16A/JJ	.	.	.
=65	=65	=65	=65	=65	=65
8GG#X/L	.	16e/LL	4e~\	5	.
.	.	16A/	.	.	.
8AA/	.	16B/	.	.	.
.	.	16A/JJ	.	.	.
8BB/	3	16g/LL	4g~\	.	.
.	.	16A/	.	.	.
8C#/J	.	16B/	.	.	.
.	.	16A/JJ	.	.	.
=66	=66	=66	=66	=66	=66
8D/L	.	16f#/LL	8f#\	3	.
.	.	16A/	.	.	.
8AA/	4	16g/	8g\	4	.
.	.	16A/JJ	.	.	.
8FF#/	.	(16a/LL	4a~\	.	.
.	.	16f#/	.	.	.
8C#/J	3	16c#/	.	.	.
.	.	16A/JJ	.	.	.
*	*	*v	*v	*	*
=67	=67	=67	=67	=67
8A/L	.	16c#\LL	.	<
.	.	16f#\	.	.
8C#/	.	16a\	1	.
.	.	16aa\JJ	.	.
8AA/	.	16ff#\LL	4	[
.	.	16cc#\	2	>
8F#/J	.	16dd\	.	.
.	.	16cc#\JJ	.	.
!!LO:LB:g=original
=68	=68	=68	=68	=68
*	*	*^	*	*
8C#/L	.	16a/LL	4ryy	.	.
.	.	16f#/	.	2	.
8AA/	1	16g/	.	.	]
.	.	16f#/JJ)	.	.	.
8EE/	.	(4b/	16g\LL	.	.
.	.	.	16f#\	.	<
8GG/J	.	.	16e\	.	.
.	.	.	16f#\JJ	.	.
=69	=69	=69	=69	=69	=69
8BB/L	.	4dd/	16e\LL	.	.
.	.	.	16f#\	.	.
*	*	*	*	*below	*
8BB-X/	3	.	16g\	1	[
.	.	.	16a\JJ	.	.
*	*	*	*	*above	*
8AA/	1	4cc#/	16b\LL	3 4	>
.	.	.	16a\	.	.
8EE/J	4	.	16g\	.	.
.	.	.	16a\JJ	.	.
=70	=70	=70	=70	=70	=70
8DD/L	.	4dd/	16b\LL	.	]]
.	.	.	16a\	.	.
8AA/	.	.	16g\	.	.
*	*	*	*	*below	*
.	.	.	16f#\JJ	2	.
*	*	*	*	*above	*
8D/	.	[4a/)	16g\LL	3 4	.
.	.	.	16f#\	.	.
8C#/J	.	.	16e\	.	.
.	.	.	16f#\JJ	.	.
=71	=71	=71	=71	=71	=71
8Cn/L	1	4a/]	16g\LL	.	.
.	.	.	16f#\	.	.
8BB/	.	.	16e\	.	.
.	.	.	16f#\JJ	.	.
8AA#X/	.	(4b/	16g\LL	.	<
.	.	.	16f#\	.	.
8AAn/J	1	.	16e\	.	.
.	.	.	16f#\JJ	.	.
=72	=72	=72	=72	=72	=72
8GG#X/L	.	4dd/	16e\LL	.	.
.	.	.	16f#\	.	[
8GGn/	1	.	16g\	1	.
.	.	.	16a\JJ	.	.
8FF#/	3	4cc#/	16b\LL	3 4	.
.	.	.	16a\	1	>
8EE/J	.	.	16g#X\	2	.
.	.	.	16gn\JJ	.	]]
!!LO:PB:g=original
=73	=73	=73	=73	=73	=73
8DD/L	.	8ee/L	16a\LL	.	.
.	.	.	16g\	.	.
8AA/	.	8dd/J)	16f#\	2 5	.
.	.	.	16e\JJ	.	.
8D/	.	[4a/	16f#\LL	2 4	.
.	.	.	16g\	.	.
8C#/J	.	.	16f#\	.	.
.	.	.	16e\JJ	.	.
=74	=74	=74	=74	=74	=74
8BB/L	.	4a/]	16f#\LL	.	.
.	.	.	16g\	.	.
8AA/	1	.	16f#\	.	<
.	.	.	16e\JJ	.	.
8GG/	.	(4b/	16f#\LL	.	.
.	.	.	16g\	.	.
8AA/J	.	.	16f#\	.	.
.	.	.	16e\JJ	.	[[
=75	=75	=75	=75	=75	=75
8AA#X/L	3	4g/	16d\LL	.	.
.	.	.	16e\	.	.
8BB/	2	.	16d\	.	.
.	.	.	16B\JJ	.	>
8AAn/	1	4f#/)	16c#\LL	.	.
.	.	.	16d\	.	.
8AAA/J	.	.	16B\	.	.
.	.	.	16c#\JJ	.	]]
*	*	*v	*v	*	*
=76	=76	=76	=76	=76
8DD/L	.	(>16ddLL 16f# 16d/	.	<
.	.	16cc#/	.	.
8AA/	.	16b/	.	.
.	.	16a/JJ	.	.
8BB/	.	16g/LL	.	.
.	.	16f#/	.	.
8C#/J	3	16e/	.	.
.	.	16d/JJ	.	[[
=77	=77	=77	=77	=77
8D\L	.	16c#</LL	.	.
.	.	16B</	.	.
8E\J	.	16A</	.	.
.	.	16G</JJ)	.	.
4F#: [4AA: [4DD:/	.	16r	.	mf
.	.	(16A/LL	.	<
.	.	16d/	.	.
.	.	16aJJ 16f#/)	4	.
!!LO:LB:g=original
=78	=78	=78	=78	=78
4E 4AA] 4DD/]	.	16r	.	.
.	.	(16B/LL	.	.
.	.	16d/	.	.
.	.	16bJJ 16g/)	.	.
4G: 4AA: 4DD:/	.	16r	.	.
.	.	(16c#/LL	.	.
.	.	16e/	.	.
.	.	16cc#JJ 16a/)	.	.
=79	=79	=79	=79	=79
(8F#:L 8AA: 8DD:/	.	16r	.	.
.	.	(16d/LL	.	.
8G/J	.	16f#/	.	.
.	.	16ddJJ 16a/)	.	.
4A~\)	.	16r	.	.
.	.	(16f#\LL	.	.
.	.	16a\	.	.
.	.	16ff#JJ 16ccn\)	.	.
=80	=80	=80	=80	=80
*^	*	*	*	*
(8E/L	2D\	.	16r	.	.
.	.	.	(16a\LL	.	.
8F#/J	.	.	16ccn\	.	.
.	.	.	16aaJJ 16ff#\)	.	.
4G/)	.	.	16r	.	.
.	.	.	(16d/LL	.	.
.	.	.	16g/	.	.
.	.	.	16ddJJ 16b/)	.	.
*v	*v	*	*	*	*
=81	=81	=81	=81	=81
(8D\L	.	16r	.	.
.	.	(16fn\LL	.	.
8E\J	.	16b-X\	.	.
.	.	16ffnJJ 16dd\)	.	.
4Fn\	.	16r	.	.
.	.	(16A/LL	.	>
.	.	16d/	.	.
.	.	16aJJ 16fn/)	.	.
=82	=82	=82	=82	=82
4E\	1	16r	.	.
.	.	16G#X/LL	.	.
.	.	16d/	.	.
.	.	16g#XJJ 16e/	.	.
4BB/	.	16r	.	.
*	*	*	*below	*
!	!	!LO:TX:t=P:problem:łuczek pod oznaczeniem palcowania	!	!
.	.	(16eLL 16d/	11	]
.	.	16g#/	.	.
.	.	16eeJJ 16dd/)	.	.
!!LO:LB:g=original
=83	=83	=83	=83	=83
4D\	.	16r	.	.
.	.	(16F#/LL	.	.
.	.	16A/	.	.
.	.	16f#JJ 16d/)	.	.
[4AA/	.	16r	.	.
*	*	*	*above	*
.	.	(16d/LL	1	.
.	.	16f#/	.	.
.	.	16a/JJ	.	.
=84	=84	=84	=84	=84
4AA/]	.	16g/LL	.	.
.	.	16f#/	.	.
.	.	16e/	.	.
.	.	16d/JJ)	.	.
4BB-X/	2	(16gLL 16e/	4 5	.
.	.	16d/	.	.
.	.	16B-X/	.	<
.	.	16G/JJ	.	.
=85	=85	=85	=85	=85
4GG/	3	16E/LL	2	.
.	.	16G/	1	.
.	.	16B-X/	.	.
.	.	16d/JJ)	.	.
4FF#/)	.	(16aLL 16g/	.	[
.	.	16c#/	2	.
.	.	16A/	.	.
.	.	16G/JJ)	3	.
=86	=86	=86	=86	=86
8AAL 8DD/	.	(16dLL 16F#/	2 5	.
.	.	16E/	.	.
8D/	.	16F#/	.	.
.	.	16A/JJ	.	.
8F#/	3	16d/LL	5	.
.	.	16e/	1	.
8A/J	.	16f#/	.	.
.	.	16a/JJ	.	.
=87	=87	=87	=87	=87
8d\L	.	16dd\LL	.	.
.	.	16a\	1	.
8D\J	.	16dd\	.	.
.	.	16ee\JJ)	.	.
!LO:TX:b:i:t=legato	!	!	!	!
16DD/LL	.	4ff# 4dd 4f#~\	.	f
16AA/	.	.	.	.
!	!	!LO:TX:b:i:t=con	!	!
16F#/	.	.	.	.
16AA/JJ	.	.	.	.
!!LO:LB:g=original
=88	=88	=88	=88	=88
!	!	!LO:TX:b:i:t=fuoco	!	!
16EE/LL	.	4gg~ 4dd 4g\	.	.
16AA/	.	.	.	.
16E/	.	.	.	.
16AA/JJ	.	.	.	.
16GG/LL	.	4ee~ 4cc# 4e/	.	.
16BB/	.	.	.	.
16AA/	.	.	.	.
16GG/JJ	.	.	.	.
=89	=89	=89	=89	=89
16FF#/LL	.	[2aa [2dd [2a\	.	.
16GG/	1	.	.	.
16FF#/	.	.	.	.
16EE/JJ	.	.	.	.
16DD/LL	.	.	.	<
16EE/	1	.	.	.
16DD/	.	.	.	.
16CC#/JJ	.	.	.	.
=90	=90	=90	=90	=90
16BBB/LL	4	4aa] 4dd] 4a\]	.	.
16CC#/	2	.	.	.
16BBB/	1	.	.	.
16AAA/JJ	.	.	.	.
16GGG/LL	.	4bb 4gg 4dd 4b\	.	[[
16AAA/	.	.	.	.
16GGG/	.	.	.	.
16FFF#/JJ	.	.	.	.
=91	=91	=91	=91	=91
16EEE/LL	.	4ddd 4bb 4gg 4dd\	.	.
16EE/	.	.	.	.
16FF#/	4	.	.	.
16GG/JJ	.	.	.	.
16AA/LL	.	4ccc# 4aa 4cc#\	.	>]
16BB/	.	.	.	.
16AA/	.	.	.	.
16GG/JJ	.	.	.	.
=92	=92	=92	=92	=92
16FF#/LL	.	4ddd 4aa 4dd\	.	.
16GG/	2	.	.	.
16FF#/	.	.	.	.
16EE/JJ	.	.	.	.
16DD/LL	.	[4aa [4ff# [>4dd [4a\	.	<
16AA/	.	.	.	.
16D/	.	.	.	.
16E/JJ	3	.	.	.
=93	=93	=93	=93	=93
16F#\LL	.	4aa] 4ff#] 4dd] 4a\]	.	.
16E\	1	.	.	[
16D\	.	.	.	.
16C#\JJ	.	.	.	.
16BB/LL	.	4bb 4ff# 4dd 4b\	.	.
16C#/	.	.	.	.
16BB/	1	.	.	.
16AA/JJ	.	.	.	.
!!LO:LB:g=original
=94	=94	=94	=94	=94
16GG/LL	.	4ddd 4bb 4gg 4dd\	.	<
16AA/	1	.	.	.
16GG/	.	.	.	.
16FF#/JJ	.	.	.	.
16EE/LL	.	4ccc# 4aa 4gg 4cc#\	.	.
16GG/	.	.	.	.
16FF#/	.	.	.	.
16EE/JJ	.	.	.	.
=95	=95	=95	=95	=95
*	*	*^	*	*
(16DD/LL	.	4aa 4ff#/	(>8eeeL 8ee\	.	.
16AA/	.	.	.	.	.
16D/	.	.	8dddJ 8dd\)	.	[
16E/JJ	4	.	.	.	.
16F#\LL	.	[4aa [4ff# [4dd [4a\	4ryy	.	.
16A\	.	.	.	.	.
16d\	.	.	.	.	.
16A\JJ	.	.	.	.	>
*	*	*v	*v	*	*
=96	=96	=96	=96	=96
16F#/LL	.	4aa] 4ff#] 4dd] 4a\]	.	.
16D/	1	.	.	.
16AA/	.	.	.	.
16FF#/JJ)	.	.	.	.
!	!	!	!	!LO:DY:t=meno %s
(16GG/LL	.	(4bb 4gg 4dd 4b\	.	] f
16C#/	.	.	.	.
16D/	.	.	.	.
16G/JJ)	.	.	.	.
=97	=97	=97	=97	=97
(16AA\LL	.	4gg 4cc# [4b\	.	<
16D#X\	.	.	.	.
16E\	.	.	.	.
16G\JJ)	.	.	.	.
(16BB\LL	.	4ff# 4dd 4b\])	4	.
16Dn\	.	.	.	.
16E#X\	.	.	.	.
16F#\JJ)	.	.	.	.
=98	=98	=98	=98	=98
*	*	*^	*	*
N(>16FF#/LL	.	2aa 2ff# 2cc# 2a\	4ryy	.	.
16C#/	3	.	.	.	.
16F#/	2	.	.	.	.
16A/JJ	.	.	.	.	.
4ryy	.	.	16c#/LL	1	<
.	.	.	16e#X/	2	.
.	.	.	16f#/	.	.
.	.	.	16a/JJ	4	.
*	*	*v	*v	*	*
!!LO:PB:g=original
=99	=99	=99	=99	=99
4r	.	16cc#\LL	1	.
.	.	16ee#X\	.	[
.	.	16ff#\	.	.
.	.	16aa\JJN)	4	.
(16FF#/LL	.	4ccc# 4aa 4een 4cc#~\	.	.
16C#/	.	.	.	.
16E/	.	.	.	.
16A/JJ)	.	.	.	.
=100	=100	=100	=100	=100
(16GG/LL	.	4aa 4dd 4b 4a~\	.	.
16C#/	.	.	.	.
16D/	.	.	.	.
16G/JJ)	.	.	.	.
(16AA/LL	.	4gg 4cc# 4b 4g~\	.	.
16D#X/	.	.	.	.
16E/	.	.	.	.
16G/JJ)	.	.	.	.
=101	=101	=101	=101	=101
*	*	*^	*	*
N(16AA\LL	.	2bb 2ff# 2dd 2b\	4ryy	.	.
16Dn\	.	.	.	.	.
16F#\	.	.	.	.	.
16B\JJ	.	.	.	.	<
4ryy	.	.	16c#/LL	1	.
.	.	.	16d/	.	.
.	.	.	16e#X/	.	.
.	.	.	16f#/JJ	.	.
*	*	*v	*v	*	*
=102	=102	=102	=102	=102
4ryy	.	16b\LL	1	.
.	.	16dd\	.	.
.	.	16ff#\	.	.
.	.	16bb\JJN)	.	.
!	!	!	!	!LO:DY:t=sempre più %s
(16GG#X\LL	.	4ddd 4bb 4ff# 4dd\	.	[f
16D\	.	.	.	.
16F#\	.	.	.	.
16B\JJ)	.	.	.	.
=103	=103	=103	=103	=103
(16AA\LL	.	4bb 4gg 4cc# 4b\	.	.
16D#X\	.	.	.	.
16E\	.	.	.	.
16A\JJ)	.	.	.	.
(16BB\LL	.	4aa 4ff# 4dd 4a\	.	.
16E#X\	.	.	.	.
16F#\	.	.	.	.
16A\JJ)	.	.	.	.
!!LO:LB:g=original
=104	=104	=104	=104	=104
(16C#\LL	.	4ddd 4bb 4ee#X 4dd\	.	.
16F##X\	.	.	.	.
16G#X\	.	.	.	.
16c#\JJ)	.	.	.	.
(16D\LL	.	4ccc# 4aa 4ff# 4cc#\	.	.
16G#\	.	.	.	.
16A\	.	.	.	.
16c#\JJ)	.	.	.	.
=105	=105	=105	=105	=105
(16E\LL	.	4fff# 4ddd 4gg#X 4ff#\	.	.
16A#X\	.	.	.	.
16B\	.	.	.	.
16d\JJ)	.	.	.	.
(16An\LL	.	4eee 4ddd 4ggn 4ee\	.	.
16B-X\	.	.	.	.
16d\	.	.	.	.
16g\JJ)	.	.	.	.
=106	=106	=106	=106	=106
!	!	!	!	!LO:DY:rj
[2a [2d [2A [2F#\	.	(16aaaLL 16ddd 16aa\	.	ff
.	.	16fff#\	.	.
.	.	16ddd\	.	.
.	.	16aa\JJ)	.	.
.	.	(16dddLL 16bb\	.	.
.	.	16aa\	.	.
.	.	16ff#\	.	.
.	.	16dd\JJ)	.	.
=107	=107	=107	=107	=107
4a] 4d] 4A] 4F#\]	.	(16aaLL 16ff#\	.	.
.	.	16ee\	.	.
.	.	16dd\	.	.
.	.	16a\JJ)	.	.
*	*above	*	*	*
(16g#X\LL	1	4bb 4gg#X 4dd 4b\	.	.
16d\	.	.	.	.
16B\	.	.	.	.
16E#X\JJ)	.	.	.	.
=108	=108	=108	=108	=108
(16gn\LL	.	4ddd 4bb 4ggn 4dd\	.	.
16d\	.	.	.	.
16B\	.	.	.	.
16En\JJ)	.	.	.	.
(16g\LL	.	4ccc# 4aa 4gg 4cc#\	.	.
16c#\	.	.	.	.
16A\	.	.	.	.
16E-X\JJ)	.	.	.	.
!!LO:LB:g=original
=109	=109	=109	=109	=109
(16f#\LL	.	4ddd 4aa 4ff# 4dd\	.	.
16cn\	.	.	.	.
16A\	.	.	.	.
16D\JJ)	.	.	.	.
(16e#X\LL	.	[4aa 4ee#X 4cc#X [4a\	.	.
*	*below	*	*	*
16A\	2	.	.	.
16E#X\	4	.	.	.
16C#X\JJ)	.	.	.	.
=110	=110	=110	=110	=110
(16en\LL	.	4aa] 4een 4ccn 4a\]	.	.
16A\	.	.	.	.
16F#\	3	.	.	.
16Cn\JJ)	.	.	.	.
(16d#X\LL	.	4bb 4aa 4dd#X 4b\	.	.
16A\	.	.	.	.
16F#\	.	.	.	.
16BB\JJ)	.	.	.	.
=111	=111	=111	=111	=111
!	!	!LO:TX:t=P:problem:klamra	!	!
(16dn\LL	.	4ddd 4gg 4ee 4ddn\	.	.
16G\	.	.	.	.
16E\	.	.	.	.
16BB-X\JJ)	.	.	.	.
(16c#\LL	.	4ccc# 4gg 4cc#\	.	.
16G\	.	.	.	.
16E\	.	.	.	.
16AA\JJ)	.	.	.	.
=112	=112	=112	=112	=112
*	*	*^	*	*
(16cn\LL	.	4cccn 4ff#/	(>8eeeL 8ee\	.	.
16F#\	.	.	.	.	.
16D\	.	.	8dddJ 8dd\)	.	.
16AA-X\JJ)	.	.	.	.	.
(16Bn\LL	.	[4dd 4b [4d/	4ryy	.	.
16D\	.	.	.	.	.
16GG\JJ)	.	.	.	.	.
16r	.	.	.	.	.
*	*	*v	*v	*	*
=113	=113	=113	=113	=113
(16A#X/LL	.	4dd] 4a#X 4d/]	.	.
16D/	.	.	.	.
16FF#/JJ)	.	.	.	.
16r	.	.	.	.
(16An/LL	.	4dd#X 4an 4d#X/	.	.
16D/	.	.	.	.
16FFn/JJ)	.	.	.	.
16r	.	.	.	.
!!LO:LB:g=original
=114	=114	=114	=114	=114
*	*	*^	*	*
(16G#X/LL	.	4dddn 4gg#X/	(>8fff#L 8ff#\	.	.
16BB/	.	.	.	.	.
16EE/JJ)	.	.	8eeeJ 8ee\)	.	.
16r	.	.	.	.	.
(16Gn/LL	.	(8eeL 8e/	4cc#\	.	.
16AA/	.	.	.	.	.
16EE-X/JJ)	.	8ee#XJ 8e#X/)	.	.	.
16r	.	.	.	.	.
=115	=115	=115	=115	=115	=115
(16F#/LL	.	4ddd/	(>8gggnL 8ggn\	.	.
16AA/	.	.	.	.	.
16DD/JJ)	.	.	8fff#J 8ff#\)	.	.
16r	.	.	.	.	.
(16Fn/LL	.	(8ff#XL 8f#X/	4b\	.	.
16GG/	.	.	.	.	.
16DD-X/JJ)	.	8ggJ 8g/)	.	.	.
16r	.	.	.	.	.
=116	=116	=116	=116	=116	=116
(16E/LL	.	4eee/	(>8aaaL 8aa\	.	.
16GG/	.	.	.	.	.
16CCn/JJ)	.	.	8gggJ 8gg\)	.	.
16r	.	.	.	.	.
(16D/LL	.	8ggL 8g~/	4ffn\	.	.
16FFn/	.	.	.	.	.
16BBB/JJ)	.	8gg#XJ 8g#X~/	.	.	.
16r	.	.	.	.	.
*	*	*v	*v	*	*
=117	=117	=117	=117	=117
8AAL 8AAA^\	.	8bbbL 8gggn 8ccc# 8bb^\	.	.
8eJ 8c# 8G\	4	8aaaJ 8aa^\	.	.
4r	.	(16fff#\LL	4	.
.	.	16eee\	.	.
.	.	16ccc#\	.	.
.	.	16bb\JJ	.	.
=118	=118	=118	=118	=118
!	!	!LO:TX:b:i:t=m.s.	!	!
16ff#>\LL	.	4ryy	.	.
16ee>\	.	.	.	.
16cc#>\	.	.	.	.
16b>\JJ	.	.	.	.
!	!	!LO:TX:a:i:t=m.d.	!	!
4ryy	.	16f#/LL	4	.
.	.	16e/	.	.
.	.	16c#/	.	.
.	.	16B/JJ	.	.
!!LO:LB:g=original
=119	=119	=119	=119	=119
*	*above	*	*	*
!LO:TX:b:i:t=m.s.	!	!	!	!
16F#\LL	1	4ryy	.	.
16E\	.	.	.	.
16C#\	.	.	.	.
16BB\JJ	.	.	.	.
!LO:TX:a:i:t=m.d.	!	!	!	!
4ryy	.	16FF#</LL	4	.
.	.	16EE</	.	.
.	.	16CC#</	.	.
.	.	16BBB</JJ)	.	.
=120||	=120||	=120||	=120||	=120||
*k[b-e-]	*	*k[b-e-]	*	*
*M6/8	*	*M6/8	*	*
*8ba	*	*	*	*
!LO:TX:a:i:t=m.s.	!	!	!	!LO:DY:a=2:rj
8BBB-L 8BBBB-/	.	2.r	.	sf
*X8ba	*	*	*	*
8rAA	.	.	.	.
[8FF^>/J	.	.	.	.
8.FF/L]	.	.	.	.
16EE-/K	.	.	.	.
8FF/J	.	.	.	.
*	*	*clefF4	*	*
=121	=121	=121	=121	=121
8DD/	.	8B-^\L	5	f
8r	.	8r	.	.
8r	.	[8F^\J	3	.
8CC/	.	8.F\L]	.	.
8r	.	.	.	.
.	.	16E-\K	.	.
8r	.	8F\J	.	.
=122	=122	=122	=122	=122
!	!	!LO:TX:t=P:problem:mixed beam	!	!
4.ryy	.	(16BBB-</LL	.	.
.	.	16FF</	.	.
.	.	16BB-</	.	.
.	.	16C>\	1	.
.	.	16D>\	.	.
.	.	16F>\JJ	.	.
!	!	!LO:TX:t=P:problem:brackettup	!	!
!	!	!LO:TUP:a	!	!
4.ryy	.	16%3B-\L)	.	.
.	.	16%3c\J	2	.
*	*	*clefG2	*	*
=123	=123	=123	=123	=123
*	*	*^	*	*
4.r	.	8d-X/L	4.ryy	.	.
.	.	16rf	.	.	.
.	.	16c/K	.	.	.
.	.	8d-/J	.	.	.
8.r	.	(4B-/	4.B-\	1	.
(<[16G-X\KL	.	.	.	.	.
8G-]J 8E-\)	.	8c/)	.	.	.
!!LO:PB:g=original
=124	=124	=124	=124	=124	=124
8F 8BB-\	.	8d-X/L	4.ryy	.	.
8r	.	16rf	.	.	.
.	.	16c/K	.	.	.
8r	.	8d-/J	.	.	.
8.r	.	(4B-/	4.B-\	.	.
(<[16G-X\KL	.	.	.	.	.
8G-]J 8E-\)	.	8c/)	.	.	.
=125	=125	=125	=125	=125	=125
8F 8BB-\	.	8dn/L	4.ryy	.	.
8r	.	16rf	.	.	.
.	.	16c/K	.	.	.
8r	.	8d/J	.	.	>
8.r	.	(4B-/	4.B-\	.	.
(<[16Gn\KL	.	.	.	.	.
8G]J 8E-\)	.	8c/)	.	.	.
*	*	*v	*v	*	*
=126	=126	=126	=126	=126
8F 8BB-\	.	8d/L	.	.
8r	.	16rg	.	.
.	.	16c/K	.	.
8r	.	8d/J	.	]
8.r	.	(4B-/	.	.
(<[16G\KL	.	.	.	.
8G]J 8E-\)	.	8c/)	.	.
=127	=127	=127	=127	=127
!!LO:TX:a:i:t=pochissimo
8.r	.	(4B-/	.	<
(16G\KL	.	.	.	.
!!LO:TX:a:i:t=rit.
8E-\J)	.	8c/)	.	.
8.r	.	(4B-/	.	[
(16D\KL	.	.	.	.
8F#X\J)	.	8A/)	.	.
=128	=128	=128	=128	=128
*	*	*	*	*^
!!LO:TX:a:i:t=a tempo
!	!	!	!	!LO:DY:rj	!LO:DY:b=2:rj
8G 8D 8GG/	.	8g 8d 8B-/	.	sf	sf
8r	.	8r	.	.	.
[8d^\	.	8r	.	.	.
8.d\L]	.	4r	.	.	.
16c\K	.	.	.	.	.
8d\J	.	8r	.	.	.
*	*	*	*	*v	*v
!!LO:LB:g=original
=129	=129	=129	=129	=129
8B-\	.	8gg\L	.	.
8r	.	8rb	.	.
8r	.	[8dd\J	.	.
8A\	.	8.dd\L]	.	.
8r	.	.	.	.
.	.	16cc\K	.	.
8r	.	8dd\J	.	.
=130	=130	=130	=130	=130
!	!	!LO:TX:t=P:problem:mixed beam	!	!
4.ryy	.	(16G</LL	.	.
.	.	16B-</	.	.
.	.	16g</	.	.
.	.	16a\	1	>
.	.	16b-\	.	.
.	.	16dd\JJ)	.	.
!	!	!LO:TX:t=P:problem:brackettup	!	!
!	!	!LO:TUP:a	!	!
4.r	.	16%3gg\L	.	.
.	.	16%3aa\J	2	]]
*clefG2	*	*	*	*
=131	=131	=131	=131	=131
4.r	.	8bb-\L	.	.
.	.	16r	.	.
.	.	16aa\K	.	p
.	.	8bb-\J	.	.
8.r	.	(4gg\	.	.
(<[16ee-\KL	.	.	.	.
8ee-]J 8cc\)	.	8aa\)	.	.
=132	=132	=132	=132	=132
8dd 8g\	.	8bb-\L	.	.
8r	.	16r	.	.
.	.	16aa\K	.	.
8r	.	8bb-\J	.	.
8.r	.	(4gg\	.	.
(<[16ee-\KL	.	.	.	.
8ee-]J 8cc\)	.	8aa\)	.	.
=133	=133	=133	=133	=133
8dd 8g\	.	8bbn\L	.	.
!	!	!	!	!LO:HP:t=poco cresc.
8r	.	16r	.	<
.	.	16aa\K	.	.
8r	.	8bb\J	.	.
8.r	.	(4gg\	.	.
(<[16ee-\KL	.	.	.	.
8ee-]J 8cc\)	.	8aa\)	.	.
!!LO:LB:g=original
=134	=134	=134	=134	=134
8dd 8g\	.	8bbn\L	.	.
8r	.	16r	.	.
.	.	16aa\K	.	.
8r	.	8bb\J	.	.
8.r	.	(4gg\	.	.
(<[16ee-\KL	.	.	.	.
!!LO:TX:a:i:t=poco rit
8ee-]J 8cc\)	.	8aa\)	.	<
=135	=135	=135	=135	=135
8.r	.	(4gg\	.	.
(<[16ee-\KL	.	.	.	.
8ee-]J 8cc\)	.	8aa\)	.	[
8.r	.	(4gg\	.	.
([<16cc#X\KL	.	.	.	.
8eenJ 8cc#\])	.	8ff#X\)	.	.
*clefF4	*	*	*	*
=136||	=136||	=136||	=136||	=136||
*k[f#c#]	*	*k[f#c#]	*	*
!!LO:TX:a:B:t=Tempo I.
8D 8FF# 8BBB^>/	.	8bb 8ff# 8b^\	3	ff
8r	.	8r	.	.
*	*below	*	*	*
[8F#^\	2	[8f#^>/	3	.
8.F#\L]	.	8.f#/L]	.	.
16E\K	.	16e/K	.	.
8F#\J	.	8f#/J	.	.
=137	=137	=137	=137	=137
!	!	!LO:TX:t=P:problem:mixed beam	!	!
4.ryy	.	16BB</LL	.	.
.	.	16F#</	.	.
.	.	16B</	.	.
.	.	16c#\	1	.
.	.	16d\	.	.
.	.	16f#\JJ	.	.
!	!	!LO:TX:t=P:problem:brackettup	!	!
!	!	!LO:TUP:a	!	!
4.r	.	16%3b\L	.	.
.	.	16%3cc#\J	2	.
=138	=138	=138	=138	=138
4.r	.	8dd\L	.	.
.	.	16r	.	>
.	.	16cc#\K	.	.
.	.	8dd\J	.	.
8.r	.	(4b\	.	.
*	*below	*	*	*
(<[16g\KL	1	.	.	.
8g]J 8e\)	.	8cc#\)	.	.
!!LO:LB:g=original
=139	=139	=139	=139	=139
*	*above	*	*	*
8f# 8B\	2	8dd\L	.	.
8r	.	16r	.	.
.	.	16cc#\K	.	.
8r	.	8dd\J	.	]]
8.r	.	(4b\	.	p
(<[16g\KL	.	.	.	.
8g]J 8e\)	.	8cc#\)	.	.
=140	=140	=140	=140	=140
8f# 8B\	.	8dd\L	.	.
8r	.	16r	.	.
.	.	16cc#\K	.	.
8r	.	8dd\J	.	.
8.r	.	(4g/	.	.
(<[16e\KL	.	.	.	.
8e]J 8c#\)	.	8a/)	.	.
=141	=141	=141	=141	=141
8f# 8B\	.	8dd\L	.	.
8r	.	16r	.	.
.	.	16cc#\K	.	.
8r	.	8dd\J	.	.
8.r	.	(4g/	.	.
(<[16e\KL	.	.	.	.
8e]J 8c#\)	.	8a/)	.	.
=142	=142	=142	=142	=142
8.r	.	(4g/	.	.
(16e\KL	.	.	.	.
8c#\J)	.	8a/)	.	<
8.r	.	(4f#/	.	.
(16d\KL	.	.	.	.
8B\J)	.	8g/)	.	.
=143	=143	=143	=143	=143
8.r	.	(4e/	.	.
(16c#\KL	.	.	.	.
8A\J)	.	8f#/)	.	.
8.r	.	(4d/	.	[
(16B\KL	.	.	.	.
8G\J)	.	8e/)	.	.
!!LO:LB:g=original
=144	=144	=144	=144	=144
8A 8D\	.	8f#L 8d/	.	.
8r	.	16ra	.	.
.	.	16e/K	.	.
8r	.	8f#/J	.	.
8.r	.	(4d/	.	.
(16B\KL	.	.	.	.
8G\J)	.	8e/)	.	.
=145	=145	=145	=145	=145
8A 8D\	.	8f#L 8d/	.	.
8r	.	16ra	.	.
.	.	16e/K	.	.
8r	.	8f#/J	.	.
8.r	.	(4d/	.	.
(16B\KL	.	.	.	.
8G\J)	.	8e/)	.	.
=146	=146	=146	=146	=146
8A 8D\	.	8f#L 8d/	.	.
8r	.	16ra	.	.
.	.	16e/K	.	.
8r	.	8f#/J	.	.
8.r	.	(4d/	.	.
(16B\KL	.	.	.	.
8G\J)	.	8e/)	.	>
=147	=147	=147	=147	=147
8.r	.	(4d/	.	.
(16B\KL	.	.	.	.
8G\J)	.	8e/)	.	.
8.r	.	(4d/	.	.
(16F#\KL	.	.	.	.
8A#X\J)	.	8c#/)	.	]]
=148	=148	=148	=148	=148
8An 8D\	.	8f#L 8d/	.	p
8r	.	16ra	.	.
.	.	16e/K	.	.
8r	.	8f#/J	.	.
8.r	.	(4d/	.	.
(16B\KL	.	.	.	.
8G\J)	.	8e/)	.	.
!!LO:PB:g=original
=149	=149	=149	=149	=149
8A 8D\	2	8f#L 8d/	.	.
8r	.	16ra	.	.
.	.	16e/K	.	.
8r	.	8f#/J	.	.
8.r	.	(4d/	.	.
(16B\KL	.	.	.	.
8G\J)	.	8e/)	.	.
=150	=150	=150	=150	=150
8A 8D\	.	8f#L 8d/	.	.
8r	.	16ra	.	.
.	.	16e/K	.	.
8r	.	8f#/J	.	.
8.r	.	(4d/	.	.
(16B\KL	.	.	.	.
8G\J)	.	8e/)	4	.
=151	=151	=151	=151	=151
!	!	!LO:TX:a:i:t=poco-a-poco-cresc.:ext=s:problem:text with extention lines	!	!LO:HP:a
8.r	.	(4c#/	.	<
(16A\KL	.	.	.	.
8F#\J)	.	8d/)	.	.
8.r	.	(4B/	.	.
(16G\KL	.	.	.	.
8E\J)	.	8c#/)	.	.
=152	=152	=152	=152	=152
8.r	.	(4f#/	3	.
*	*below	*	*	*
(16d\KL	1	.	.	[
8B\J)	.	8g/)	.	.
8.r	.	(4e/	.	.
(16c#\KL	.	.	.	.
8A\J)	.	8f#/)	.	.
=153	=153	=153	=153	=153
8.r	.	(4d/	.	.
(16B\KL	1	.	.	.
8G\J)	.	8e/)	4	.
8.r	.	(4c#/	2	.
(16A\KL	.	.	.	.
8F#\J)	.	8d/)	1	.
!!LO:LB:g=original
=154	=154	=154	=154	=154
8r	.	(4g/	3	.
(16e\LL	.	.	.	.
16d\J	.	.	.	.
8c#\J)	.	8a/)	.	.
8r	.	(4f#/	.	.
(16d\LL	.	.	.	.
16c#\J	.	.	.	.
8B\J)	.	8g/)	1	.
=155	=155	=155	=155	=155
8r	.	(4a/	2	.
(16f#\LL	.	.	.	.
16e\J	.	.	.	.
8d\J)	.	8b\)	.	.
8r	.	(4g/	.	.
(16e\LL	.	.	.	.
16d\J	.	.	.	.
8c#\J)	.	8a/)	.	.
=156	=156	=156	=156	=156
8r	.	(4b\	.	.
(16g\LL	.	.	.	.
16f#\J	.	.	.	.
8e\J)	.	8cc#\)	.	.
8r	.	(4a/	.	.
(16f#\LL	.	.	.	.
16e\J	.	.	.	.
8d\J)	.	8b\)	.	.
=157	=157	=157	=157	=157
8r	.	(4cc#\	.	.
(16a\LL	.	.	.	.
16g\J	.	.	.	.
8f#\J)	.	8dd\)	.	.
8r	.	(4b\	.	.
(16g\LL	.	.	.	.
16f#\J	.	.	.	.
8e\J)	.	8cc#\)	.	.
=158||	=158||	=158||	=158||	=158||
*M2/4	*	*M2/4	*	*
8f# 8B\	.	(16dd\LL	.	p
.	.	16ee\	.	.
8r	.	16cc#\	.	.
.	.	16dd\JJ	.	.
(16g#X\LL	.	8ee\)	.	.
16a\	.	.	.	.
16f#\	.	8r	.	.
16g#\JJ	.	.	.	.
!!LO:LB:g=original
=159	=159	=159	=159	=159
8a\)	.	(16c#/LL	.	.
.	.	16d/	.	.
8r	.	16B/	.	.
.	.	16c#/JJ	.	.
(16F#\LL	.	8d/)	.	.
16G#X\	.	.	.	.
16E\	.	8r	.	.
16F#\JJ	.	.	.	.
*	*	*clefF4	*	*
=160	=160	=160	=160	=160
8G#X\)	.	(16BB/LL	.	.
.	.	16C#/	.	.
8r	.	16AA/	.	.
.	.	16BB/JJ	.	.
(16EE#X/LL	.	8C#/)	.	.
16FF#/	.	.	.	.
16DD#X/	.	8r	.	.
16EE#/JJ	.	.	.	.
*	*	*clefG2	*	*
=161	=161	=161	=161	=161
8FF#/)	.	(16aa\LL	.	.
.	.	16bb\	.	.
8r	.	16gg#X\	.	.
.	.	16aa\JJ	.	.
*clefG2	*	*	*	*
(16dd#X\LL	.	8bb\)	.	<
16ee\	.	.	.	.
16cc#\	.	8r	.	.
16dd#\JJ	.	.	.	.
=162	=162	=162	=162	=162
8ee\)	.	(16g#X/LL	.	.
.	.	16a/	.	.
8r	.	16f#/	.	.
.	.	16g#/JJ	.	.
*clefF4	*	*	*	*
(16c#\LL	.	8a/)	.	.
16dn\	.	.	.	.
16B\	.	8r	.	.
16c#\JJ	.	.	.	[[
*	*	*clefF4	*	*
=163	=163	=163	=163	=163
8d\)	.	(16F#\LL	.	.
.	.	16G#X\	.	.
8r	.	16E\	.	.
.	.	16F#\JJ	.	.
(16BB#X/LL	.	8G#\)	.	.
16C#/	.	.	.	.
16AA#X/	.	8r	.	.
16BB#/JJ	.	.	.	.
*	*	*clefG2	*	*
!!LO:LB:g=original
=164	=164	=164	=164	=164
8C#/)	.	(16eee\LL	.	.
.	.	16fff#\	.	.
8r	.	16ddd\	.	.
.	.	16eee\JJ	.	.
*clefG2	*	*	*	*
(16aa#X\LL	.	8fff#\)	.	.
16bbn\	.	.	.	.
16gg#X\	.	8r	.	.
16aa#\JJ	.	.	.	.
=165	=165	=165	=165	=165
8bb\)	.	(16dd\LL	.	.
.	.	16ee\	.	.
8r	.	16cc#\	.	.
.	.	16dd\JJ	.	.
(16g#X/LL	.	8ee\)	.	.
16a/	.	.	.	.
16f#/	.	8r	.	.
16g#/JJ	.	.	.	.
=166	=166	=166	=166	=166
8a/)	.	(16c#/LL	.	>
.	.	16d/	.	.
8r	.	16B/	.	.
.	.	16c#/JJ	.	.
*clefF4	*	*	*	*
(16F#\LL	.	8d/)	.	.
16G#X\	.	.	.	.
16E#X\	.	8r	.	.
16F#\JJ	.	.	.	.
=167	=167	=167	=167	=167
8G#X\)	.	(16B/LL	2	.
.	.	16c#/	.	.
8r	.	16A/	.	.
.	.	16B/JJ	.	.
(16E#X\LL	.	8c#/)	.	.
16F#\	.	.	.	.
16D#X\	.	8r	.	.
16E#\JJ	.	.	.	.
=168	=168	=168	=168	=168
8F#\)	.	(16A/LL	.	.
.	.	16B/	.	.
8r	.	16G#X/	.	.
.	.	16A/JJ	.	.
(16D#X\LL	.	8B/)	.	]
16En\	.	.	.	.
16C#\	.	8r	.	.
16D#\JJ)	.	.	.	.
!!LO:LB:g=original
=169	=169	=169	=169	=169
8E'\L	1	(16G#X/LL	2	p
.	.	16A/	.	.
8D#X'\	.	16F#/	1	.
.	.	16G#/JJ	.	.
8Dn'\	.	16A/LL	.	.
.	.	16B/	.	.
8C#'\J	4	16G#/	2	.
.	.	16A/JJ	1	.
=170	=170	=170	=170	=170
8Cn'/L	1	16A#X/LL	.	.
.	.	16B/	.	.
8BB'/	.	16G##X/	1	<
.	.	16A#/JJ	.	.
8AA'/	.	16B/LL	.	.
.	.	16cn/	.	.
8GG#X'/J	4	16A#/	2	.
.	.	16B/JJ	1	.
=171	=171	=171	=171	=171
8FF#'/L	5	16B#X/LL	.	.
.	.	16c#X/	.	.
8EE#X'/	1	16A##X/	1	.
.	.	16B#/JJ	.	.
8EEn'/	2	16c#/LL	.	.
.	.	16d#X/	.	.
8DD#X'/J	.	16B#/	1	.
.	.	16c#/JJ	.	.
=172	=172	=172	=172	=172
8CC#/L	.	16d#X/LL	.	.
.	.	16e/	.	.
8BBB#X/	1	16c#/	1	.
.	.	16d#/JJ	.	.
8BBBn/	.	16e/LL	.	[
.	.	16f#/	.	.
8AAA#X/J	.	16d#/	2	.
.	.	16e/JJ	1	.
=173	=173	=173	=173	=173
8AAAn/L	1	16e#X/LL	.	.
.	.	16f#/	.	.
8GGG#X/	.	16d##X/	1	.
.	.	16e#/JJ	.	.
8GGGn/	.	16f#/LL	.	.
.	.	16g/	.	.
8FFF#/J	.	16e#/	1	.
.	.	16f#/JJ	.	.
!!LO:PB:g=original
=174	=174	=174	=174	=174
8FFFn/L	1	16gn/LL	.	.
.	.	16g#X/	.	.
8EEE/	.	16f#/	.	.
.	.	16f##X/JJ	1	.
8DDD#X/	.	16g#/LL	.	.
.	.	16a/	.	.
8DDDn/J	.	16f##/	.	.
.	.	16g#/JJ	.	.
=175||	=175||	=175||	=175||	=175||
*M6/8	*	*M6/8	*	*
8CCC#/	.	8a^>/L)	.	.
8r	.	8r	.	.
8r	.	[8e^>/J	.	.
8BB/	.	8.e/L]	.	.
8r	.	.	.	.
.	.	16d/K	.	.
8r	.	8e/J	.	.
*	*	*clefF4	*	*
=176	=176	=176	=176	=176
8C#/	.	8A^\L	.	.
8r	.	8r	.	.
8r	.	[8E^\J	.	.
8BBB/	.	8.E\L]	.	.
8r	.	.	.	.
.	.	16D\K	.	.
8r	.	[8E\J	.	>
=177	=177	=177	=177	=177
8AAA#X/	.	8E\L]	.	.
8r	.	16r	.	.
.	.	16D#X\K	2	.
8r	.	8E\J	1	.
4.r	.	8F#\L	.	.
.	.	16r	.	.
.	.	16E\K	.	.
.	.	8F#\J	.	.
=178	=178	=178	=178	=178
8BBB/	.	8G\L	.	.
8r	.	16r	.	.
.	.	16F#\K	.	.
8r	.	8G\J	1	]
4.r	.	8A#X\L	3	p
.	.	16r	.	.
.	.	16G##X\K	.	.
.	.	8A#\J	.	.
*	*	*clefG2	*	*
!!LO:LB:g=original
=179||	=179||	=179||	=179||	=179||
*k[f#c#g#d#a#]	*	*k[f#c#g#d#a#]	*	*
*^	*	*^	*	*
4r	4.ryy	.	8B/L	4.ryy	1	.
.	.	.	16re	.	.	.
.	.	.	16A#/K	.	.	.
8r	.	.	8B/J	.	.	.
!	!LO:TX:t=P:problem:brackettup	!	!LO:TX:a:i:t=dolce espress.	!	!	!
(4.An/	16%3A\L	.	(4.d#/	8cn\L	2 4	.
.	.	.	.	16rc	.	.
.	16%3BB\J	.	.	16B\K	.	.
.	.	.	.	8c\J	.	.
=180	=180	=180	=180	=180	=180	=180
*	*Xtuplet	*above	*	*	*	*
4.G#X/	16%3G#\L	2	4.e/	8B\L	1	.
.	.	.	.	16rc	.	.
.	16%3BB\J	.	.	16A#X\K	.	.
.	.	.	.	8B\J	.	.
4.Gn/	16%3G\L	.	4.c#X/	8A#\L	2 3	.
.	.	.	.	16rc	.	.
.	16%3BB\J	.	.	16G#\K	.	.
.	.	.	.	8A#\J	.	.
=181	=181	=181	=181	=181	=181	=181
4.F#/	16%3F#\L	2	[2.f#/	8d#\L	4 5	.
.	.	.	.	16rc	.	.
.	16%3BB\J	.	.	16c#\K	2	.
.	.	.	.	8d#\J	3	.
4.E#X/	16%3E#\L	1	.	8c#\L	.	.
.	.	.	.	16rc	.	.
.	16%3BB\J	.	.	16B\K	.	.
.	.	.	.	8c#\J	.	.
=182	=182	=182	=182	=182	=182	=182
4.F#/	16%3F#\L	.	2.f#/_	8d#\L	.	.
.	.	.	.	16rc	.	.
.	16%3BB\J	.	.	16c#\K	.	.
.	.	.	.	8d#\J	.	.
4.E#X/	16%3E#\L	.	.	8c#\L	.	.
.	.	.	.	16rc	.	.
.	16%3BB\J	.	.	16B\K	.	.
.	.	.	.	8c#\J	.	.
=183	=183	=183	=183	=183	=183	=183
4.F#/	16%3F#\L	.	4.f#/])	8d#\L	.	.
.	.	.	.	16rc	.	.
.	16%3BB\J	.	.	16c#\K	.	.
.	.	.	.	8d#\J	.	.
!	!	!	!	!	!	!LO:HP:a
4.E#X/	16%3E#\L	.	(4.g#/	8d#\L	2 4	<
.	.	.	.	16rc	.	.
.	16%3BB\J	.	.	16c#\K	.	.
.	.	.	.	8d#\J	.	.
!!LO:LB:g=original
=184	=184	=184	=184	=184	=184	=184
*	*	*	*	*	*below	*
4.En/	16%3E\L	3	4.b/	8d#\L	2	.
.	.	.	.	16r	.	[
.	16%3BB\J	.	.	16c#\K	.	.
.	.	.	.	8d#\J	.	.
*	*	*	*	*	*above	*
4.Gn/	16%3G\L	.	4.a#/	8e\L	1 4	.
.	.	.	.	16r	.	.
.	16%3BB\J	.	.	16d#\K	2	.
.	.	.	.	8c#\J	.	.
=185	=185	=185	=185	=185	=185	=185
!	!	!	!	!	!	!LO:HP:a
4.F#/	16%3F#\L	.	4.b/	8d#\L	.	>
.	.	.	.	16r	.	.
.	16%3BB\J	.	.	16c#\K	.	.
.	.	.	.	8d#\J	.	.
4.Gn/	16%3G\L	.	[4.f#/	8e\L	3 4	]
.	.	.	.	16rc	.	.
.	16%3BB\J	.	.	16d#\K	.	.
.	.	.	.	8c#\J	.	.
=186	=186	=186	=186	=186	=186	=186
4.F#/	16%3F#\L	.	2.f#/_	8d#\L	.	.
.	.	.	.	16rc	.	.
.	16%3BB\J	.	.	16c#\K	.	.
.	.	.	.	8d#\J	.	.
4.Gn/	16%3G\L	.	.	8e\L	.	.
.	.	.	.	16rc	.	.
.	16%3BB\J	.	.	16d#\K	.	.
.	.	.	.	8c#\J	.	.
=187	=187	=187	=187	=187	=187	=187
4.F#/	16%3F#\L	.	4.f#/])	8d#\L	.	.
.	.	.	.	16rc	.	.
.	16%3BB\J	.	.	16c#\K	.	.
.	.	.	.	8d#\J	.	.
!	!	!	!	!	!	!LO:HP:a
4.E#X/	16%3E#\L	1	(4.g#/	8d#\L	3 5	<
.	.	.	.	16rc	.	.
.	16%3BB\J	.	.	16c#\K	.	.
.	.	.	.	8d#\J	.	.
=188	=188	=188	=188	=188	=188	=188
4.En/	16%3E\L	3	4.b/	8d#\L	2 5	[
.	.	.	.	16rc	.	.
.	16%3BB\J	.	.	16c#\K	.	.
.	.	.	.	8d#\J	.	.
4.Gn/	16%3G\L	.	4.a#/	8e\L	1 4	.
.	.	.	.	16rc	.	.
.	16%3BB\J	.	.	16d#\K	2	.
.	.	.	.	8c#\J	.	.
!!LO:LB:g=original
=189	=189	=189	=189	=189	=189	=189
*	*	*	*	*	*below	*
!	!	!	!LO:TX:t=P:problem:brackettup	!	!	!
4.F#/	16%3F#\L	.	16%3cc#/L	8d#\L	2	.
.	.	.	.	16rc	.	.
*	*	*	*	*	*above	*
.	16%3BB\J	.	16%3b/J)	16c#\K	5	.
!	!	!	!	!	!	!LO:HP:a
.	.	.	.	8d#\J	.	>
4.Gn/	16%3G\L	.	[4.f#/	8e\L	3 4	.
.	.	.	.	16rc	.	.
.	16%3BB\J	.	.	16d#\K	.	.
.	.	.	.	8c#\J	.	.
=190	=190	=190	=190	=190	=190	=190
4.F#/	16%3F#\L	.	2.f#/_	8d#\L	.	]
.	.	.	.	16rc	.	.
.	16%3BB\J	.	.	16c#\K	.	.
.	.	.	.	8d#\J	.	.
4.Gn/	16%3G\L	.	.	8e\L	.	.
.	.	.	.	16rc	.	.
.	16%3BB\J	.	.	16d#\K	.	.
.	.	.	.	8c#\J	.	.
=191	=191	=191	=191	=191	=191	=191
4.F#/	16%3F#\L	.	2.f#/_	8d#\L	.	.
.	.	.	.	16rc	.	.
.	16%3BB\J	.	.	16c#\K	.	.
.	.	.	.	8d#\J	.	.
4.Gn/	16%3G\L	.	.	4.rc	.	.
.	16%3BB\J	.	.	.	.	.
=192	=192	=192	=192	=192	=192	=192
4.F#/	16%3F#\L	.	2.f#/]	8d#\L	.	.
.	.	.	.	16rc	.	.
.	16%3BB\J	.	.	16c#\K	.	.
.	.	.	.	8d#\J	.	.
4.Gn/	16%3G\L	.	.	4.rc	.	.
!	!	!	!	!	!	!LO:HP:b=2
.	16%3BB\J	.	.	.	.	>
*v	*v	*	*	*	*	*
*	*	*v	*v	*	*
=193||	=193||	=193||	=193||	=193||
*M2/4	*	*M2/4	*	*
*^	*	*	*	*
!	!	!	!LO:TX:b:i:t=rall.	!	!
4F#/	8F#\L	.	2r	.	.
.	8BB\J	.	.	.	.
*	*	*below	*	*	*
4E/)	8E\L	1	.	.	.
.	8BB\J	2	.	.	]]
*v	*v	*	*	*	*
*	*	*clefF4	*	*
=194	=194	=194	=194	=194
!!LO:TX:a:i:t=a tempo animato
!	!	!LO:TX:b:i:t=molto leggiero	!	!
8BBB'/L	.	(16D#\LL	3	.
.	.	16E\	.	.
8FF#'/	2	16C#\	1	.
.	.	16D#\JJ	.	.
8BB'/	.	16E\LL	.	.
.	.	16F#\	.	.
8FF#'/J	.	16D#\	.	.
.	.	16E\JJ	1	.
!!LO:LB:g=original
=195	=195	=195	=195	=195
8BB'\L	.	16F#\LL	2	.
.	.	16B\	4	.
8F#'\	2	16A#\	.	.
.	.	16B\JJ	.	.
*	*	*clefG2	*	*
8BB'\	5	16c#/LL	2	.
.	.	16e/	.	.
8F#'\J	.	16d#/	.	.
.	.	16e/JJ	1	.
=196	=196	=196	=196	=196
8B\L	.	16f#/LL	.	.
.	.	16b/	.	.
8f#\	.	16a#/	.	.
.	.	16b/JJ	.	.
8B\	.	16cc#\LL	.	.
.	.	16ee\	.	.
8f#\J	.	16dd#\	.	.
.	.	16ee\JJ	.	.
*clefG2	*	*	*	*
=197	=197	=197	=197	=197
8b\L	.	16ff#\LL	.	.
.	.	16bb\	.	.
8ff#\	.	16aa#\	.	.
.	.	16bb\JJ	.	.
*	*	*8va	*	*
8b\	.	16ccc#\LL	.	.
.	.	16eee\	.	.
8ff#\J	.	16ddd#\	.	.
.	.	16eee\JJ	.	.
=198	=198	=198	=198	=198
8bb\L	.	16fff#\LL	.	.
.	.	16bbb\	.	.
8fff#\	.	16aaa#\	.	.
.	.	16bbb\JJ	.	.
8bb\	.	16cccc#\LL	.	.
.	.	16eeee\	.	.
8fff#\J	.	16dddd#\	1	.
.	.	16eeee\JJ	.	.
=199	=199	=199	=199	=199
8bbb\	.	8ffff#\)	.	.
*	*	*X8va	*	*
8r	.	8r	.	.
4r	.	4r	.	.
!!LO:PB:g=original
=200||	=200||	=200||	=200||	=200||
*M6/8	*	*M6/8	*	*
2.r	.	8bb\L	.	.
.	.	8rdd	.	.
.	.	[8ff#^\J	.	.
.	.	8.ff#\L]	.	.
.	.	16ee\K	.	.
.	.	8ff#\J	.	.
=201	=201	=201	=201	=201
*	*	*	*	*^
2.r	.	8b/L	.	<	.
.	.	8r	.	.	.
.	.	[8f#^>/J	.	.	.
!	!	!	!	!	!LO:HP:a
.	.	8.f#/L]	.	.	<
.	.	16e/K	.	.	.
.	.	8f#/J	.	[[	.
*clefF4	*	*	*	*	*
*	*	*	*	*v	*v
=202	=202	=202	=202	=202
!!LO:TX:a:i:t=poco allargando
!LO:TX:a:i:t=m.d.	!	!	!	!
8ryy	.	8B</	.	.
8r	.	8ryy	.	.
!LO:TX:b:i:t=m.s.	!	!	!	!
[8F#^\	.	2ryy	.	.
8.F#\L]	.	.	.	.
16E\K	.	.	.	.
8F#\J	.	.	.	.
=203||	=203||	=203||	=203||	=203||
*M2/4	*	*M2/4	*	*
4r	.	4r	.	.
8Gn 8BB 8GGn^>/	.	8cc# 8b 8e#X 8c#^>/	.	.
8r	.	8r	.	.
=204	=204	=204	=204	=204
8F# 8AA# 8FF#^>/	.	8cc##X 8a# 8f# 8c##X^>/	.	.
8r	.	8r	.	.
8E 8FF# 8EE^>/	.	8ff# 8a# 8f#^>\	.	.
8r	.	8r	.	.
!!LO:LB:g=original
=205	=205	=205	=205	=205
!!LO:TX:a:i:t=a tempo
8D# 8FF# 8DD#/	.	16bbbLL 16ggg#\	.	ff
.	.	16fff#\	.	.
8r	.	16ddd#\	.	.
.	.	16bb\JJ	.	.
4d# 4D#^\	.	16bbLL 16gg#\	.	.
.	.	16ff#\	.	.
.	.	16dd#\	.	.
.	.	16b\JJ	.	.
=206	=206	=206	=206	=206
4e 4E'^\	.	16bLL 16g#/	.	.
.	.	16e/	.	.
.	.	16c#/	2	.
.	.	16B/JJ	.	.
*	*	*clefF4	*	*
4C# 4FF#'^>/	3	16A#\LL	4	.
.	.	16G#\	.	.
.	.	16F#\	.	.
.	.	16E\JJ	.	.
=207	=207	=207	=207	=207
*	*	*^	*	*
*	*above	*	*	*	*
[2FF# [2BBB/	2	4F#^/	16D#\LL	2 4	.
.	.	.	16C#\	.	.
.	.	.	16D#\	2	2
.	.	.	16F#\JJ	3	3
*	*	*clefG2	*	*	*
.	.	16B/LL	4ryy	1	.
.	.	16c#/	.	.	.
.	.	16d#/	.	.	.
.	.	16f#/JJ	.	4	.
=208	=208	=208	=208	=208	=208
4FF#] 4BBB/]	.	4f#/	16f#\LL	1	.
.	.	.	16b\	.	.
.	.	.	16dd#\	.	.
.	.	.	16ff#\JJ	.	.
16e#X\LL	.	4gg# 4b 4g#\	4ryy	.	.
16G#\	.	.	.	.	.
16Dn\	.	.	.	.	.
16G#\JJ	.	.	.	.	.
*	*	*v	*v	*	*
=209	=209	=209	=209	=209
16en\LL	.	4bb 4gg# 4ee 4b\	.	.
16G#\	.	.	.	.
16C#\	.	.	.	.
16G#\JJ	.	.	.	.
16e\LL	.	4aa# 4ff# 4ee 4a#\	.	.
16F#\	.	.	.	.
16Cn\	.	.	.	.
16F#\JJ	.	.	.	.
!!LO:LB:g=original
=210	=210	=210	=210	=210
16d#\LL	.	8bb 8ff# 8dd# 8b\	.	.
16F#\	.	.	.	.
16BB\	.	8r	.	.
16F#\JJ	.	.	.	.
16dn\LL	.	[4ff# 4ddn 4a# [4f#\	.	.
16F#\	.	.	.	.
16AA#\	.	.	.	.
16F#\JJ	.	.	.	.
=211	=211	=211	=211	=211
16c#\LL	.	8ff#] 8cc# 8an 8f#\]	.	.
16F#\	.	.	.	.
16AAn\	.	8r	.	.
16F#\JJ	.	.	.	.
16B#X\LL	.	4gg# 4ff# 4b#X 4g#\	.	.
16F#\	.	.	.	.
16GG#\	.	.	.	.
16F#\JJ	.	.	.	.
=212	=212	=212	=212	=212
16Bn/LL	.	4bbn 4ee 4cc# 4bn\	.	.
16E/	.	.	.	.
16GGn/	.	.	.	.
16E/JJ	.	.	.	.
16A#/LL	.	4aa# 4ee 4cc# 4a#\	.	.
16E/	.	.	.	.
16FF#/	.	.	.	.
16E/JJ	.	.	.	.
=213	=213	=213	=213	=213
*	*	*^	*	*
16An/LL	.	4dd#/	(>8ccc#L 8cc#\	.	.
16BB/	.	.	.	.	.
16FF#/	.	.	8bbJ 8b\)	.	.
16BB/JJ	.	.	.	.	.
16Gn/LL	.	[4b 4gn [4B/	4ryy	.	.
16BB/	.	.	.	.	.
16EE/	.	.	.	.	.
16BB/JJ	.	.	.	.	.
*	*	*v	*v	*	*
=214	=214	=214	=214	=214
16F#/LL	.	4b] 4f# 4B/]	.	.
16BB/	.	.	.	.
16DD#/	.	.	.	.
16BB/JJ	.	.	.	.
16E#X/LL	.	4gg#X 4b 4g#X\	.	.
16BB/	.	.	.	.
16DDn/	.	.	.	.
16BB/JJ	.	.	.	.
!!LO:LB:g=original
=215	=215	=215	=215	=215
16En/LL	.	4een 4b 4g# 4en/	.	.
16GG#/	.	.	.	.
16EE/	.	.	.	.
16GG#/JJ	.	.	.	.
16E/LL	.	4dd# 4a# 4f# 4d#/	.	.
16FF#/	.	.	.	.
16CCn/	.	.	.	.
16FF#/JJ	.	.	.	.
=216	=216	=216	=216	=216
16BBLL 16BBB\	.	16ryy	.	.
16ryy	.	16c#<LL 16C#</	.	.
16FF#\JJ	.	16ryy	.	.
16ryy	.	16B<JJ 16BB</	.	.
*	*below	*	*	*
16D#\LL	2	16ryy	.	.
16ryy	.	16eLL 16E</	.	.
16BB\JJ	4	16ryy	.	.
16ryy	.	16d#JJ 16D#</	.	.
=217	=217	=217	=217	=217
16F#\LL	2	16ryy	.	.
16ryy	.	16g#LL 16G#</	.	.
16D#\JJ	3	16ryy	.	.
16ryy	.	16f#JJ 16F#</	.	.
!LO:TX:t=P:problem:mixed beam	!	!	!	!
16B/LL	1	16ryy	.	.
16cc#> 16c#>\	.	16ryy	.	.
16F#/	3	16ryy	.	.
16b>JJ 16B>\	.	16ryy	.	.
=218	=218	=218	=218	=218
!LO:TX:t=P:problem:mixed beam	!	!	!	!
16d#LL 16D#/	.	16ryy	.	.
16ee> 16e>\	.	16ryy	.	.
16B 16BB/	.	16ryy	.	.
16dd#>JJ 16d#>\	.	16ryy	.	.
!LO:TX:t=P:problem:mixed beam	!	!	!	!
16f#LL 16F#/	.	16ryy	.	.
16gg#> 16g#>\	.	16ryy	.	.
16d# 16D#/	.	16ryy	.	.
16ff#>JJ 16f#>\	.	16ryy	.	.
=219	=219	=219	=219	=219
16b>LL 16B\	.	16ryy	.	.
16ryy	.	16ccc#LL 16cc#/	.	.
16f#>JJ 16F#\	.	16ryy	.	.
16ryy	.	16bbJJ 16b/	.	.
16dd#>LL 16d#>\	.	16ryy	.	.
16ryy	.	16eeeLL 16ee/	.	.
16b>JJ 16B>\	.	16ryy	.	.
16ryy	.	16ddd#JJ 16dd#/	.	.
!!LO:LB:g=original
=220	=220	=220	=220	=220
!	!	!LO:TX:b:i:t=m.s.	!	!
8ff#> 8f#>\	.	8ryy	.	.
8r	.	8r	.	.
8e#X 8dn 8B 8E#X\	.	8gg# 8b 8g#\	.	.
8r	.	8r	.	.
=221	=221	=221	=221	=221
8en 8c# 8B 8En\	.	8bb 8gg# 8cc# 8b\	.	.
8r	.	8r	.	.
8f#: 8c#: 8A#: 8E:\	.	8aa# 8ff# 8cc# 8a#\	.	.
8r	.	8r	.	<
=222	=222	=222	=222	=222
8f#: 8c#: 8A#: 8D#:\	.	8ccc# 8ff# 8cc#\	.	[[
8r	.	8r	.	.
8d# 8B 8G#\	3	8bb 8ff# 8b\	.	.
8r	.	8r	.	.
=223	=223	=223	=223	=223
8e: 8B: 8G#: 8C#:\	.	8ddd# 8bb 8gg# 8dd#\	.	.
8r	.	8r	.	.
8e 8A# 8F#\	4	8ccc# 8aa# 8ff# 8cc#\	.	.
8r	.	8r	.	.
=224||	=224||	=224||	=224||	=224||
*M6/8	*	*M6/8	*	*
16BBB\LL	.	8.ryy	.	.
16FF#\	.	.	.	.
16BB\JJ	.	.	.	.
!LO:TX:a:i:t=m.d.	!	!	!	!
8.ryy	.	16C#</LL	1	.
.	.	16D#</	.	.
.	.	16F#</JJ	.	.
!	!	!LO:TUP:a	!	!
4.ryy	.	16%3B</	5	.
!LO:TX:b:i:t=m.s.	!	!	!	!
*	*	*	*below	*
.	.	16%3c#<\	2	.
=225	=225	=225	=225	=225
!	!	!LO:TX:t=P:problem:mixed beam	!	!
4.ryy	.	8.dd#L 8.d#\	.	.
.	.	16c#</K	2	.
.	.	8dd#J 8d#\	.	.
*tuplet	*	*	*	*
!LO:TX:t=P:problem:brackettup	!	!	!	!
16%3B\L	3	16%3r	.	.
16%3eJ 16%3c# 16%3F#\	.	16%3ff# 16%3a# 16%3f#/	.	.
=226	=226	=226	=226	=226
!LO:TUP:a	!	!LO:TUP:a	!	!
16%3B 16%3F# 16%3BB\	.	16%3bb 16%3ff# 16%3dd# 16%3b\	.	.
16%3r	.	16%3r	.	.
4.r	.	4.r	.	.
==	==	==	==	==
*-	*-	*-	*-	*-
!!!system-decoration: {(g1)}
!!!RDF**kern: i = editorial accidental
!!!RDF**kern: > = above
!!!RDF**kern: < = below
!!!RDF**kern: N = linked
!!!RDF**dynam: > = "dim.", fontstyle= "italic"
!!!ENC: Berenika Jozajtis
!!!EED: Katarzyna Serwa
!!!END: 2023-10-23
!!!EEV: 2023-10-28
